X: 20283
M: 3/4
L: 1/8
K: F
d2dcd2 | c2d2B2 | A2B2G2 | F3 z2 :|
|: G/F/ |\
EFGAG2 | AG^FAG2 | AG^FGAB | c3zcB |\
|: F/G/ |\
(cA).A.A.A.A | A2z2fe | (ed).d.d.d.d | d2z2BA |\
(Ac).c.c.c.c | c3ABG | (AF).F.F.F.F | F3 z2 :|


